X: 475
T:The Half-Twist
M:C|
L:1/8
C:Mark Stewart c 1999
Z:Lesl Harker
N:Posted to the woodenflute mailing list January 2002
K:Amix
|:c2A2 e2A2|defd e4|defd e2ce|d2c2 B4|
c2A2 e2A2|defd e4|fagf e2ce|1 dcB2 A4:|2 dcB2 A2a2-|
|:a2e2 a2e2|g2f2 e4|fagf e2ce|f2e2 e4|
{fg}a2e2 a2e2|g~g2z e4|fagf e2ce|1 dcB2 A2a2-:|2 dcB2 A4||

